X:1
T:Rough Molly
R:highland
C:trad.
S:Sharon Creasey playing the whistle
Z:Transcribed by Larry Sanger
M:4/4
K:Ador
"Am"EAAB "Dm7"cBce|"Dm7"dB (3gab "Em7"(3agf g<{a}g|"F"EAAB "F"cBce|
|1 "G"dBgB "Am"{d}BAAG:|2 "G"dBgB "Am"{d}BAAg||"Am"a{g}a (3gab "Am"a<{g}aba|
"Em"g<b gd "Em"g<b gd|"Fmaj7"e<a g<b "Fmaj7"a{b}aba|"G"{ga}gfgd "Am"Ba a2|
"Am"a{g}a (3gab "Am"(3aba (3gag|"Em"(3efe (3ded "Em"(3cdc {Bc}BG|
"Fmaj7"EAAB "G"cBce|1 "Em7"dBgB "Am"{d}BAa2:|2 "Em7"dBgB "Am"{d}BAAG||

